[A]
T3@2V15,3
L0O5E4ERE2RD4RRD4RRD2R
L0O5F4FRF2RE4RRE4RRE2R
L0O5FRFRR1FRF2RGRGRR1GRG2RG2RG2R
L0O5ARARR1ARA2RA3
L0O6CO5A+G+F+EDCO4A+G+F+EDCO3BA+A

[B]
T3@2V15,3
L1O4CEGO5CO4CEGO5CO4CEGO5CO4CEGO5C
L1O4CEGO5CO4CEGO5CO4CEGO5CO4CEGO5C
L0O5D-RD-RR1D-RD-2RE-RE-RR1E-RE-2RE-2RE-2R
L1O4FAO5CFFCO4AF
L7R

[C]
T3@2V15,3
L5O4CO3GO4CO3G
L5O4CO3GO4CO3G
L0O3A-RA-RR1A-RA-2RB-RB-RR1B-RB-2RB-2RB-2R
L3O5F5CO4F
L7R
