[A]
T3V15,3
@6L1O3BB
L3O3BB1B1BB1B1O4EF+G+O3B1B1BB1B1O4EG+1G+1F+D+O3BB1B1
L3O3BB1B1BB1B1O4EF+G+E1G+1B5R1A1G+1F+1EG+E
@7L1O4BB
L3O4BB1B1BB1B1O5EF+G+O4B1B1BB1B1O5EG+1G+1F+D+O4BB1B1
L3O4BB1B1BB1B1O5EF+G+E1G+1B5R1A1G+1F+1EG+E
@15L1O4G+G+
L3O4G+G+1G+1G+G+1G+1G+O5C+O4G+O5C+O4G+O5C+O4G+F+ED+C+G+1G+1
L3O4G+G+1G+1G+G+1G+1G+O5C+O4G+O5C+O4G+O5C+O4BA+BA+BG+1G+1
L3O4G+G+1G+1G+G+1G+1G+O5C+O4G+O5C+O4G+O5C+O4G+F+ED+C+G+1G+1
L3O4G+G+1G+1G+G+1G+1G+O5C+O4G+O5C+O4G+O5C+O4BA+B5R

[B]
T3V13,3
@2L1O3G+G+
L3O3G+G+1G+1G+G+1G+1G+G+G+G+1G+1G+G+1G+1G+G+1G+1F+F+F+G+1G+1
L3O3G+G+1G+1G+G+1G+1G+G+G+RO2BO3B1B1BBG+O2BO3D+
@2L1O3BB
L3O3BB1B1BB1B1O4EF+G+O3B1B1BB1B1O4EG+F+D+O3BB1B1
L3O3BB1B1BB1B1O4EF+G+RO2BO3B1B1BBO4EG+E
@2L1O3G+G+
L3O3G+G+1G+1G+G+1G+1G+O4C+O3G+O4C+O3G+O4C+O3G+F+EC+C+G+1G+1
L3O3G+G+1G+1G+G+1G+1G+O4C+O3G+O4C+O3G+O4C+O3BF+BBBG+1G+1
L3O3G+G+1G+1G+G+1G+1G+O4C+O3G+O4C+O3G+O4C+O3G+F+EC+C+G+1G+1
L3O3G+G+1G+1G+G+1G+1G+O4C+O3G+O4C+O3G+O4C+O3BA+B5R

[C]
T3V13,3
@2L1O3EE
L3O3EE1E1EE1E1EEEE1E1EE1E1EE1E1D+D+D+E1E1
L3O3EE1E1EE1E1EEERO2F+O3F+1F+1F+AEO2EE
@2L1O2G+G+
L3O3G+G+1G+1G+G+1G+1G+BBG+1G+1G+G+1G+1G+BO4DO3F+D+G+1G+1
L3O3G+G+1G+1G+G+1G+1G+BBRO2F+O3F+1F+1F+AG+BE
@15L1O4EE
L3O4EE1E1EE1E1EO5C+O4EO5C+O4EO5C+O4ED+C+D+C+E1E1
L3O4EE1E1EE1E1EO5C+O4EO5C+O4EO5C+O4D+C+D+C+D+E1E1
L3O4EE1E1EE1E1EO5C+O4EO5C+O4EO5C+O4ED+C+D+C+E1E1
L3O4EE1E1EE1E1EO5C+O4EO5C+O4EO5C+O4D+C+D+5R
